public/icons/icon-coffee.svg

<svg width="25" height="25" viewBox="0 0 25 25" fill="none" xmlns="http://www.w3.org/2000/svg">
<path d="M6.00977 2.5C5.45748 2.5 5.00977 2.94772 5.00977 3.5V5.5C5.00977 6.05228 5.45748 6.5 6.00977 6.5C6.56205 6.5 7.00977 6.05228 7.00977 5.5V3.5C7.00977 2.94772 6.56205 2.5 6.00977 2.5Z" fill="#273D63"/>
<path fill-rule="evenodd" clip-rule="evenodd" d="M13.0098 21.5C15.9828 21.5 18.4507 19.3377 18.9268 16.5H19.0098C21.2189 16.5 23.0098 14.7091 23.0098 12.5C23.0098 10.2909 21.2189 8.5 19.0098 8.5V7.5H1.00977V15.5C1.00977 18.8137 3.69606 21.5 7.00977 21.5H13.0098ZM3.00977 9.5V15.5C3.00977 17.7091 4.80063 19.5 7.00977 19.5H13.0098C15.2189 19.5 17.0098 17.7091 17.0098 15.5V9.5H3.00977ZM21.0098 12.5C21.0098 13.6046 20.1143 14.5 19.0098 14.5V10.5C20.1143 10.5 21.0098 11.3954 21.0098 12.5Z" fill="#273D63"/>
<path d="M9.00977 3.5C9.00977 2.94772 9.45748 2.5 10.0098 2.5C10.562 2.5 11.0098 2.94772 11.0098 3.5V5.5C11.0098 6.05228 10.562 6.5 10.0098 6.5C9.45748 6.5 9.00977 6.05228 9.00977 5.5V3.5Z" fill="#273D63"/>
<path d="M14.0098 2.5C13.4575 2.5 13.0098 2.94772 13.0098 3.5V5.5C13.0098 6.05228 13.4575 6.5 14.0098 6.5C14.562 6.5 15.0098 6.05228 15.0098 5.5V3.5C15.0098 2.94772 14.562 2.5 14.0098 2.5Z" fill="#273D63"/>
</svg>

<svg viewBox="0 0 25 25" fill="none" xmlns="http://www.w3.org/2000/svg"><path d="M6.01 2.5a1 1 0 0 0-1 1v2a1 1 0 1 0 2 0v-2a1 1 0 0 0-1-1z" fill="#273D63"/><path fill-rule="evenodd" clip-rule="evenodd" d="M13.01 21.5a6.002 6.002 0 0 0 5.917-5h.083a4 4 0 0 0 0-8v-1h-18v8a6 6 0 0 0 6 6h6zm-10-12v6a4 4 0 0 0 4 4h6a4 4 0 0 0 4-4v-6h-14zm18 3a2 2 0 0 1-2 2v-4a2 2 0 0 1 2 2z" fill="#273D63"/><path d="M9.01 3.5a1 1 0 0 1 2 0v2a1 1 0 0 1-2 0v-2zM14.01 2.5a1 1 0 0 0-1 1v2a1 1 0 1 0 2 0v-2a1 1 0 0 0-1-1z" fill="#273D63"/></svg>
